app/images/ben-06-route.svg

<?xml version="1.0" encoding="UTF-8" standalone="no"?>
<svg width="96px" height="85px" viewBox="0 0 96 85" version="1.1" xmlns="http://www.w3.org/2000/svg" xmlns:xlink="http://www.w3.org/1999/xlink">
    <!-- Generator: Sketch 40 (33762) - http://www.bohemiancoding.com/sketch -->
    <title>Forma_4</title>
    <desc>Created with Sketch.</desc>
    <defs></defs>
    <g id="Page-1" stroke="none" stroke-width="1" fill="none" fill-rule="evenodd">
        <path d="M37.1029004,75.2807828 C37.101921,75.9181789 37.3538024,76.5297518 37.8029265,76.9804594 C38.2520506,77.4311671 38.8614747,77.6839366 39.4966313,77.6829537 L41.8903623,77.6829537 C43.2225527,77.6829537 44.3025065,76.5991922 44.3025065,75.2623046 C44.3025065,73.925417 43.2225527,72.8416554 41.8903623,72.8416554 L39.4966313,72.8416554 C38.855652,72.842582 38.2417349,73.1010523 37.7919665,73.5593504 C37.3421982,74.0176485 37.0940382,74.6376043 37.1029004,75.2807828 M47.8931029,44.9025602 L50.2868338,44.9025602 C51.6190239,44.9025596 52.6989769,43.8187982 52.6989769,42.4819111 C52.6989769,41.1450239 51.6190239,40.0612626 50.2868338,40.061262 L47.8931029,40.061262 C46.5609129,40.0612626 45.4809598,41.1450239 45.4809598,42.4819111 C45.4809598,43.8187982 46.5609129,44.9025596 47.8931029,44.9025602 M34.7091695,44.9025602 L37.1029004,44.9025602 C38.4350904,44.9025596 39.5150435,43.8187982 39.5150435,42.4819111 C39.5150435,41.1450239 38.4350904,40.0612626 37.1029004,40.061262 L34.7091695,40.061262 C33.3769794,40.0612626 32.2970264,41.1450239 32.2970264,42.4819111 C32.2970264,43.8187982 33.3769794,44.9025596 34.7091695,44.9025602 M50.2868338,75.2807828 C50.2858544,75.9181789 50.5377358,76.5297518 50.9868599,76.9804594 C51.435984,77.4311671 52.0454081,77.6839366 52.6805648,77.6829537 L55.0742957,77.6829537 C56.4064857,77.6829531 57.4864388,76.5991917 57.4864388,75.2623046 C57.4864388,73.9254174 56.4064857,72.8416561 55.0742957,72.8416554 L52.6805648,72.8416554 C52.0395854,72.842582 51.4256683,73.1010523 50.9759,73.5593504 C50.5261316,74.0176485 50.2779717,74.6376043 50.2868338,75.2807828 M63.4339407,75.2807828 C63.4329612,75.9181789 63.6848426,76.5297518 64.1339667,76.9804594 C64.5830909,77.4311671 65.1925149,77.6839366 65.8276716,77.6829537 L68.2214025,77.6829537 C69.5535926,77.6829531 70.6335456,76.5991917 70.6335456,75.2623046 C70.6335456,73.9254174 69.5535926,72.8416561 68.2214025,72.8416554 L65.8276716,72.8416554 C65.1866922,72.842582 64.5727751,73.1010523 64.1230068,73.5593504 C63.6732384,74.0176485 63.4250785,74.6376043 63.4339407,75.2807828 M23.9189669,75.2807828 C23.9179875,75.9181789 24.1698689,76.5297518 24.618993,76.9804594 C25.0681171,77.4311671 25.6775412,77.6839366 26.3126979,77.6829537 L28.7064288,77.6829537 C30.0386188,77.6829531 31.1185719,76.5991917 31.1185719,75.2623046 C31.1185719,73.9254174 30.0386188,72.8416561 28.7064288,72.8416554 L26.3126979,72.8416554 C25.6717185,72.842582 25.0578014,73.1010523 24.6080331,73.5593504 C24.1582647,74.0176485 23.9101048,74.6376043 23.9189669,75.2807828 M2.71051087,64.8221003 C1.49217804,65.3546538 0.929877322,66.7736118 1.45104013,68.0003572 C1.81118673,68.8755248 2.24871632,69.7165647 2.75838549,70.5133975 C3.47777341,71.6251411 4.95189957,71.9538797 6.07278216,71.252527 C7.18416228,70.5143593 7.50329095,69.0198412 6.79090144,67.8894878 C6.43453759,67.3229543 6.12182869,66.7299247 5.85550505,66.115577 C5.48463284,65.2197536 4.61255895,64.6363211 3.64590726,64.637318 C3.32171802,64.6258893 2.99922481,64.6890984 2.70314554,64.8221003 M10.8639267,74.282958 C10.7013243,74.900225 10.7926801,75.5571701 11.1174669,76.1061812 C11.4422537,76.6551924 11.9732326,77.0502258 12.5910956,77.2025195 C13.4898627,77.4541318 14.4114152,77.6150745 15.3420449,77.6829537 C16.6742353,77.7931702 17.8432232,76.798757 17.9530526,75.4618695 C18.0628821,74.124982 17.0719628,72.9518723 15.7397725,72.8416554 C15.0751822,72.8045094 14.4168101,72.6929477 13.7769131,72.5090472 C13.5818972,72.4665472 13.3834549,72.441809 13.1840044,72.4351342 C12.0795616,72.4433275 11.1226781,73.2054365 10.8639267,74.282958 M11.0996171,46.9721228 C11.6590501,46.6098641 12.2508207,46.3005635 12.8672954,46.0482109 C13.9225551,45.5925775 14.5176627,44.4594823 14.295781,43.3283491 C14.0738993,42.197216 13.0952421,41.3750092 11.9466296,41.3547386 C11.633723,41.361833 11.3245307,41.42439 11.0333292,41.539521 C10.1687691,41.9092815 9.33821164,42.3544668 8.55121435,42.8699541 C7.42241197,43.5761574 7.07781621,45.0669498 7.78153812,46.1997323 C8.48526003,47.3325148 9.97081452,47.6783258 11.0996171,46.9721228 M21.5289187,44.9025602 L23.9116016,44.9025602 C25.2437921,44.9025602 26.3237459,43.8187987 26.3237459,42.4819111 C26.3237459,41.1450235 25.2437921,40.061262 23.9116016,40.061262 L21.5289187,40.061262 C20.1967282,40.061262 19.1167744,41.1450235 19.1167744,42.4819111 C19.1167744,43.8187987 20.1967282,44.9025602 21.5289187,44.9025602 M2.92042266,58.2438477 C3.55567478,58.3064501 4.18944053,58.1110504 4.68008565,57.7013165 C5.17073077,57.2915827 5.47735388,56.7016712 5.53143071,56.0634157 C5.60212021,55.3895768 5.72525158,54.7223231 5.899697,54.067766 C6.06730857,53.4502213 5.98280564,52.7911074 5.66488419,52.2362511 C5.34696273,51.6813947 4.82183082,51.2765358 4.20567204,51.111248 C4.00531969,51.0505749 3.7959315,51.0255599 3.58698466,51.0373351 C2.50478821,51.0350097 1.55607509,51.7626974 1.27427231,52.8112459 C1.03369194,53.7323969 0.86864862,54.6717639 0.780795469,55.619938 C0.716234184,56.2558887 0.908112019,56.8913028 1.31358865,57.3843121 C1.71906528,57.8773214 2.30437483,58.1868709 2.93883597,58.2438477 M76.6289221,12.1221667 L79.022653,12.1221667 C80.3548431,12.1221661 81.4347961,11.0384047 81.4347961,9.70151758 C81.4347961,8.36463043 80.3548431,7.28086909 79.022653,7.28086845 L76.6289221,7.28086845 C75.2967321,7.28086909 74.216779,8.36463043 74.216779,9.70151758 C74.216779,11.0384047 75.2967321,12.1221661 76.6289221,12.1221667 M89.5182425,41.9460422 C90.2663409,41.3743235 90.9570459,40.7306932 91.5805338,40.0243055 C92.2186753,39.3083342 92.3786465,38.2831686 91.9891509,37.4057077 C91.5996553,36.5282468 90.733231,35.9619057 89.7760289,35.9590932 C89.1009406,35.9767205 88.4623531,36.2704384 88.0083507,36.7721357 C87.5661863,37.2651298 87.0859499,37.7223451 86.5721121,38.1395252 C85.5383291,38.9896009 85.3593843,40.5078317 86.1670192,41.5764774 C86.5582596,42.077782 87.1343923,42.3996048 87.765113,42.4691591 C88.3958338,42.5387135 89.0278587,42.3501233 89.5182425,41.9460422 M90.9913077,25.5004107 L90.9913077,27.9025816 C90.9913073,28.7607949 91.4475497,29.5538168 92.1881728,29.9829236 C92.9287959,30.4120303 93.8412813,30.4120303 94.5819044,29.9829236 C95.3225275,29.5538168 95.77877,28.7607949 95.7787696,27.9025816 L95.7787696,25.5004107 C95.77877,24.6421975 95.3225275,23.8491755 94.5819044,23.4200688 C93.8412813,22.990962 92.9287959,22.990962 92.1881728,23.4200688 C91.4475497,23.8491755 90.9913073,24.6421975 90.9913077,25.5004107 M75.4136433,44.9025602 L77.8073742,44.9025602 C79.1395643,44.9025596 80.2195173,43.8187982 80.2195173,42.4819111 C80.2195173,41.1450239 79.1395643,40.0612626 77.8073742,40.061262 L75.4136433,40.061262 C74.0814533,40.0612626 73.0015002,41.1450239 73.0015002,42.4819111 C73.0015002,43.8187982 74.0814533,44.9025596 75.4136433,44.9025602 M87.9346974,17.2960732 C88.3259379,17.7973778 88.9020705,18.1192006 89.5327913,18.1887549 C90.163512,18.2583093 90.7955369,18.0697191 91.2859207,17.665638 C92.3283775,16.8158738 92.492792,15.2814278 91.654187,14.2286858 C91.0642024,13.5068739 90.4242909,12.827658 89.7392023,12.1960797 C89.3023687,11.8047201 88.7410724,11.5820299 88.1556572,11.5678196 C87.4597256,11.5748749 86.8011969,11.88507 86.3511523,12.4178185 C85.4816912,13.4130742 85.563463,14.9229811 86.5352855,15.8178142 C87.0480907,16.2642081 87.5167369,16.7592592 87.9346974,17.2960732 M23.9300149,12.1221667 L26.3237459,12.1221667 C27.6559359,12.1221661 28.735889,11.0384047 28.735889,9.70151758 C28.735889,8.36463043 27.6559359,7.28086909 26.3237459,7.28086845 L23.9300149,7.28086845 C22.5978244,7.28086845 21.5178707,8.36462998 21.5178707,9.70151758 C21.5178707,11.0384052 22.5978244,12.1221667 23.9300149,12.1221667 M50.2978818,12.1221667 L52.6916128,12.1221667 C54.0238032,12.1221667 55.103757,11.0384052 55.103757,9.70151758 C55.103757,8.36462998 54.0238032,7.28086845 52.6916128,7.28086845 L50.2978818,7.28086845 C48.9656913,7.28086845 47.8857376,8.36462998 47.8857376,9.70151758 C47.8857376,11.0384052 48.9656913,12.1221667 50.2978818,12.1221667 M63.4449886,12.1221667 L65.8387196,12.1221667 C67.1709101,12.1221667 68.2508638,11.0384052 68.2508638,9.70151758 C68.2508638,8.36462998 67.1709101,7.28086845 65.8387196,7.28086845 L63.4449886,7.28086845 C62.1127982,7.28086845 61.0328444,8.36462998 61.0328444,9.70151758 C61.0328444,11.0384052 62.1127982,12.1221667 63.4449886,12.1221667 M37.1139484,12.1221667 L39.5076793,12.1221667 C40.8398698,12.1221667 41.9198236,11.0384052 41.9198236,9.70151758 C41.9198236,8.36462998 40.8398698,7.28086845 39.5076793,7.28086845 L37.1139484,7.28086845 C35.7817579,7.28086845 34.7018041,8.36462998 34.7018041,9.70151758 C34.7018041,11.0384052 35.7817579,12.1221667 37.1139484,12.1221667 M62.2665365,44.9025602 L64.6602674,44.9025602 C65.9924575,44.9025596 67.0724105,43.8187982 67.0724105,42.4819111 C67.0724105,41.1450239 65.9924575,40.0612626 64.6602674,40.061262 L62.2665365,40.061262 C60.934346,40.061262 59.8543922,41.1450235 59.8543922,42.4819111 C59.8543922,43.8187987 60.934346,44.9025602 62.2665365,44.9025602 M86.2038458,80.1220811 C88.169081,80.1445649 89.9529635,78.9728754 90.7188817,77.1565156 C91.4848,75.3401558 91.0808406,73.2393853 89.696454,71.8394308 C88.3120673,70.4394763 86.2218346,70.0180069 84.4060407,70.7726848 C82.5902467,71.5273628 81.4090388,73.3085041 81.416384,75.2807828 C81.4082292,77.9435239 83.5504756,80.1098605 86.2038458,80.1220811 M86.2038458,65.5612298 C90.1309693,65.5162729 93.6963848,67.8556492 95.2303734,71.4838059 C96.7643621,75.1119627 95.9632127,79.3105691 93.2021116,82.1133768 C90.4410104,84.9161844 86.2666216,85.7682715 82.6338524,84.2705974 C79.0010833,82.7729233 76.6291776,79.2220091 76.6289221,75.2807828 C76.6105056,69.9483906 80.8903272,65.6039223 86.2038458,65.5612298 M9.57499465,14.5612941 C11.5368771,14.5837386 13.3183882,13.4160315 14.0864329,11.6042322 C14.8544776,9.79243288 14.4572649,7.69461279 13.0805449,6.2917837 C11.7038249,4.88895461 9.61968303,4.45836191 7.80273463,5.20136535 C5.98578623,5.94436879 4.79512038,7.71412632 4.78753279,9.68303934 C4.77772839,10.9670427 5.27662105,12.2023611 6.17445233,13.1172195 C7.07228361,14.0320779 8.29550208,14.5515299 9.57499465,14.5612941 M9.57499465,0.000442839396 C13.4947643,-0.0370148222 17.0490342,2.30468254 18.5732799,5.92887863 C20.0975257,9.55307471 19.2899596,13.7422096 16.5287786,16.534441 C13.7675975,19.3266723 9.59949168,20.1691621 5.97645525,18.6673582 C2.35341883,17.1655543 -0.00721793276,13.616801 7.09187095e-05,9.68303934 C-0.00971484357,7.12485087 0.993575757,4.66754008 2.78922632,2.85169691 C4.58487688,1.03585374 7.02579415,0.0102255513 9.57499465,0.000442839396" id="Forma_4" fill="#1C3244"></path>
    </g>
</svg>

<?xml version="1.0" encoding="utf-8"?>
<!-- Generator: Adobe Illustrator 16.0.0, SVG Export Plug-In . SVG Version: 6.00 Build 0)  -->
<!DOCTYPE svg PUBLIC "-//W3C//DTD SVG 1.1//EN" "http://www.w3.org/Graphics/SVG/1.1/DTD/svg11.dtd">
<svg version="1.1" id="Layer_1" xmlns="http://www.w3.org/2000/svg" xmlns:xlink="http://www.w3.org/1999/xlink" x="0px" y="0px"
	 width="96px" height="85px" viewBox="0 0 96 85" enable-background="new 0 0 96 85" xml:space="preserve">
<title>Forma_4</title>
<desc>Created with Sketch.</desc>
<g id="Page-1">
	<path id="Forma_4" fill="#333366" d="M37.103,75.281c-0.001,0.637,0.251,1.248,0.7,1.699c0.449,0.451,1.059,0.703,1.694,0.703
		h2.394c1.333,0,2.413-1.084,2.413-2.422c0-1.336-1.08-2.42-2.413-2.42h-2.394c-0.641,0.001-1.255,0.26-1.705,0.718
		S37.094,74.638,37.103,75.281 M47.893,44.902h2.394c1.332,0,2.412-1.084,2.412-2.42c0-1.337-1.08-2.42-2.412-2.421h-2.394
		c-1.332,0-2.412,1.084-2.412,2.421C45.481,43.818,46.561,44.902,47.893,44.902 M34.709,44.902h2.394
		c1.332,0,2.412-1.084,2.412-2.42c0-1.337-1.08-2.42-2.412-2.421h-2.394c-1.332,0-2.412,1.084-2.412,2.421
		C32.297,43.818,33.377,44.902,34.709,44.902 M50.287,75.281c-0.002,0.637,0.25,1.248,0.699,1.699s1.059,0.703,1.694,0.703h2.394
		c1.332,0,2.412-1.084,2.412-2.422c0-1.336-1.08-2.42-2.412-2.42h-2.394c-0.642,0.001-1.255,0.26-1.704,0.718
		C50.526,74.018,50.277,74.638,50.287,75.281 M63.434,75.281c0,0.637,0.252,1.248,0.7,1.699c0.449,0.451,1.059,0.703,1.694,0.703
		h2.393c1.333,0,2.413-1.084,2.413-2.422c0-1.336-1.08-2.42-2.413-2.42h-2.393c-0.642,0.001-1.256,0.26-1.705,0.718
		S63.426,74.638,63.434,75.281 M23.919,75.281c-0.001,0.637,0.251,1.248,0.7,1.699s1.059,0.703,1.693,0.703h2.394
		c1.332,0,2.412-1.084,2.412-2.422c0-1.336-1.08-2.42-2.412-2.42h-2.394c-0.641,0.001-1.255,0.26-1.705,0.718
		S23.91,74.638,23.919,75.281 M2.71,64.822C1.492,65.354,0.93,66.773,1.451,68c0.36,0.875,0.797,1.717,1.307,2.514
		c0.719,1.111,2.194,1.44,3.314,0.738c1.111-0.738,1.431-2.232,0.718-3.362c-0.356-0.567-0.669-1.159-0.936-1.774
		c-0.371-0.896-1.243-1.479-2.209-1.479c-0.324-0.011-0.647,0.053-0.943,0.186 M10.864,74.283c-0.163,0.617-0.071,1.273,0.254,1.822
		c0.325,0.55,0.855,0.945,1.474,1.098c0.898,0.251,1.82,0.412,2.75,0.48c1.333,0.109,2.501-0.885,2.611-2.222
		s-0.881-2.511-2.213-2.62c-0.665-0.037-1.323-0.148-1.963-0.333c-0.195-0.042-0.394-0.067-0.593-0.073
		C12.08,72.443,11.123,73.205,10.864,74.283 M11.1,46.973c0.56-0.363,1.151-0.672,1.768-0.924c1.055-0.456,1.65-1.59,1.429-2.721
		c-0.222-1.131-1.201-1.953-2.349-1.974c-0.313,0.007-0.622,0.07-0.914,0.185c-0.864,0.37-1.695,0.815-2.482,1.331
		c-1.129,0.706-1.474,2.196-0.77,3.329C8.485,47.332,9.971,47.678,11.1,46.973 M21.529,44.902h2.383c1.332,0,2.412-1.084,2.412-2.42
		c0-1.337-1.08-2.421-2.412-2.421h-2.383c-1.332,0-2.412,1.084-2.412,2.421C19.117,43.818,20.197,44.902,21.529,44.902 M2.92,58.244
		c0.635,0.062,1.269-0.133,1.76-0.543s0.797-1,0.851-1.638c0.071-0.674,0.194-1.341,0.369-1.995
		c0.167-0.618,0.083-1.277-0.235-1.832s-0.843-0.96-1.459-1.125c-0.2-0.061-0.41-0.086-0.619-0.074
		c-1.082-0.002-2.031,0.726-2.312,1.773c-0.241,0.922-0.406,1.861-0.494,2.81c-0.064,0.636,0.127,1.271,0.533,1.765
		c0.406,0.492,0.991,0.803,1.625,0.859 M76.629,12.122h2.394c1.333,0,2.412-1.083,2.412-2.42s-1.079-2.421-2.412-2.421h-2.394
		c-1.332,0-2.412,1.084-2.412,2.421S75.297,12.122,76.629,12.122 M89.518,41.946c0.748-0.572,1.439-1.216,2.062-1.922
		c0.639-0.716,0.799-1.741,0.409-2.619s-1.256-1.444-2.214-1.447c-0.674,0.018-1.312,0.312-1.768,0.813
		c-0.441,0.493-0.922,0.95-1.436,1.368c-1.034,0.85-1.213,2.368-0.405,3.437c0.392,0.501,0.968,0.823,1.599,0.893
		C88.396,42.539,89.027,42.35,89.518,41.946 M90.991,25.5v2.402c0,0.858,0.456,1.651,1.196,2.081c0.741,0.429,1.654,0.429,2.395,0
		s1.197-1.222,1.197-2.081V25.5c0-0.858-0.457-1.651-1.197-2.081c-0.74-0.429-1.653-0.429-2.395,0
		C91.447,23.849,90.991,24.642,90.991,25.5 M75.414,44.902h2.394c1.332,0,2.412-1.084,2.412-2.42c0-1.337-1.08-2.42-2.412-2.421
		h-2.394c-1.332,0-2.412,1.084-2.412,2.421C73.002,43.818,74.082,44.902,75.414,44.902 M87.935,17.296
		c0.392,0.501,0.968,0.823,1.599,0.893c0.631,0.069,1.262-0.119,1.753-0.523c1.042-0.85,1.206-2.384,0.368-3.437
		c-0.59-0.722-1.23-1.401-1.915-2.032c-0.437-0.392-0.998-0.614-1.583-0.628c-0.696,0.007-1.355,0.317-1.805,0.85
		c-0.87,0.995-0.788,2.505,0.184,3.4C87.048,16.264,87.517,16.759,87.935,17.296 M23.93,12.122h2.394
		c1.332,0,2.412-1.083,2.412-2.42s-1.08-2.421-2.412-2.421H23.93c-1.333,0-2.412,1.084-2.412,2.421S22.598,12.122,23.93,12.122
		 M50.298,12.122h2.394c1.332,0,2.412-1.083,2.412-2.42s-1.08-2.421-2.412-2.421h-2.394c-1.332,0-2.412,1.084-2.412,2.421
		S48.966,12.122,50.298,12.122 M63.445,12.122h2.394c1.332,0,2.412-1.083,2.412-2.42s-1.08-2.421-2.412-2.421h-2.394
		c-1.332,0-2.412,1.084-2.412,2.421S62.113,12.122,63.445,12.122 M37.114,12.122h2.394c1.332,0,2.412-1.083,2.412-2.42
		s-1.08-2.421-2.412-2.421h-2.394c-1.332,0-2.412,1.084-2.412,2.421S35.782,12.122,37.114,12.122 M62.267,44.902h2.394
		c1.332,0,2.412-1.084,2.412-2.42c0-1.337-1.08-2.42-2.412-2.421h-2.394c-1.332,0-2.412,1.084-2.412,2.421
		C59.854,43.818,60.935,44.902,62.267,44.902 M86.203,80.122c1.966,0.022,3.75-1.149,4.516-2.966s0.362-3.917-1.022-5.316
		c-1.384-1.4-3.475-1.822-5.29-1.067c-1.816,0.755-2.997,2.536-2.99,4.509C81.408,77.943,83.551,80.109,86.203,80.122
		 M86.203,65.561c3.928-0.045,7.493,2.295,9.027,5.924c1.533,3.627,0.732,7.826-2.028,10.629s-6.936,3.654-10.568,2.157
		s-6.005-5.048-6.005-8.989C76.61,69.948,80.891,65.604,86.203,65.561 M9.575,14.562c1.962,0.022,3.743-1.146,4.511-2.958
		c0.768-1.812,0.371-3.909-1.006-5.312C11.704,4.889,9.62,4.458,7.803,5.201C5.986,5.944,4.795,7.714,4.788,9.683
		c-0.01,1.284,0.489,2.519,1.387,3.434S8.295,14.552,9.575,14.562 M9.575,0c3.919-0.038,7.474,2.304,8.998,5.928
		c1.524,3.625,0.717,7.813-2.044,10.606c-2.761,2.792-6.929,3.634-10.552,2.133C2.354,17.166-0.007,13.617,0,9.683
		c-0.01-2.558,0.994-5.016,2.789-6.832C4.585,1.036,7.026,0.01,9.575,0"/>
</g>
</svg>
